static/assets/img/icons/theme/general/like.svg

<svg height="24" viewBox="0 0 24 24" width="24" xmlns="http://www.w3.org/2000/svg"><g fill="none" fill-rule="evenodd"><path d="m0 0h24v24h-24z" opacity="0"/><g fill="#000"><path d="m9 10v9l1.1525987.3841996c1.2235977.4078659 2.5049481.6158004 3.7947332.6158004h3.5932564c1.4300431 0 2.6612875-1.009379 2.941742-2.4116516l.7491987-3.7459932c.3249358-1.6246792-.7287144-3.2051546-2.3533937-3.5300904-.2592141-.0518428-.5241433-.0691976-.7879054-.0516135l-3.5902299.2393487.3641964-4.00616019c.0684931-.75342486-.4867537-1.41972107-1.2401785-1.48821423-.0412331-.00374846-.0826148-.00562558-.1240179-.00562558-.9305956 0-1.7929561.48826024-2.2717436 1.28623939z"/><rect height="11" opacity=".3" rx="1" width="5" x="2" y="9"/></g></g></svg>

<svg width="24px" height="24px" viewBox="0 0 24 24" version="1.1" xmlns="http://www.w3.org/2000/svg" xmlns:xlink="http://www.w3.org/1999/xlink">
    <title>Icon For Like</title>
    <g stroke="none" stroke-width="1" fill="none" fill-rule="evenodd">
        <rect opacity="0" x="0" y="0" width="24" height="24"></rect>
        <path d="M9,10 L9,19 L10.1525987,19.3841996 C11.3761964,19.7920655 12.6575468,20 13.9473319,20 L17.5405883,20 C18.9706314,20 20.2018758,18.990621 20.4823303,17.5883484 L21.231529,13.8423552 C21.5564648,12.217676 20.5028146,10.6372006 18.8781353,10.3122648 C18.6189212,10.260422 18.353992,10.2430672 18.0902299,10.2606513 L14.5,10.5 L14.8641964,6.49383981 C14.9326895,5.74041495 14.3774427,5.07411874 13.6240179,5.00562558 C13.5827848,5.00187712 13.5414031,5 13.5,5 L13.5,5 C12.5694044,5 11.7070439,5.48826024 11.2282564,6.28623939 L9,10 Z" fill="#000000"></path>
        <rect fill="#000000" opacity="0.3" x="2" y="9" width="5" height="11" rx="1"></rect>
    </g>
</svg>
